packages/templates/examples/example-single-card-1.svg

<svg class="typst-doc" viewBox="0 0 140 200" width="140pt" height="200pt" xmlns="http://www.w3.org/2000/svg" xmlns:xlink="http://www.w3.org/1999/xlink" xmlns:h5="http://www.w3.org/1999/xhtml">
    <path class="typst-shape" fill="#ffffff" fill-rule="nonzero" d="M 0 0v 200 h 140 v -200 Z "/>
    <g>
        <g class="typst-group" transform="matrix(1 0 0 1 7 7)">
            <g>
                <g class="typst-group">
                    <g>
                        <g class="typst-group" transform="matrix(1 0 0 1 38 33)">
                            <g>
                                <g class="typst-group">
                                    <g>
                                        <path class="typst-shape" fill="#eeeeee" fill-rule="nonzero" transform="matrix(1 0 0 1 11 10)" d="M 0 0v 72.5 h 3 v -72.5 Z "/>
                                        <g class="typst-group" transform="matrix(1 0 0 1 4.1000000000000005 10)">
                                            <g>
                                                <path class="typst-shape" fill="#e6e6e6" fill-rule="nonzero" stroke="#000000" stroke-width="0.5" stroke-linecap="butt" stroke-linejoin="miter" stroke-miterlimit="4" d="M 0 0m 8.4 0 l 8.4 6 l -8.4 6 l -8.4 -6 Z "/>
                                            </g>
                                        </g>
                                        <a transform="matrix(1 0 0 1 4.1000000000000005 10)" href="bead://heaven-col1-active0" xlink:href="bead://heaven-col1-active0">
                                            <rect width="16.8" height="12" fill="transparent" stroke="none"/>
                                        </a>
                                        <g class="typst-group" transform="matrix(1 0 0 1 4.1000000000000005 33)">
                                            <g>
                                                <path class="typst-shape" fill="#a23b72" fill-rule="nonzero" stroke="#000000" stroke-width="0.5" stroke-linecap="butt" stroke-linejoin="miter" stroke-miterlimit="4" d="M 0 0m 8.4 0 l 8.4 6 l -8.4 6 l -8.4 -6 Z "/>
                                            </g>
                                        </g>
                                        <a transform="matrix(1 0 0 1 4.1000000000000005 33)" href="bead://earth-col1-pos0-active1" xlink:href="bead://earth-col1-pos0-active1">
                                            <rect width="16.8" height="12" fill="transparent" stroke="none"/>
                                        </a>
                                        <g class="typst-group" transform="matrix(1 0 0 1 4.1000000000000005 45.5)">
                                            <g>
                                                <path class="typst-shape" fill="#a23b72" fill-rule="nonzero" stroke="#000000" stroke-width="0.5" stroke-linecap="butt" stroke-linejoin="miter" stroke-miterlimit="4" d="M 0 0m 8.4 0 l 8.4 6 l -8.4 6 l -8.4 -6 Z "/>
                                            </g>
                                        </g>
                                        <a transform="matrix(1 0 0 1 4.1000000000000005 45.5)" href="bead://earth-col1-pos1-active1" xlink:href="bead://earth-col1-pos1-active1">
                                            <rect width="16.8" height="12" fill="transparent" stroke="none"/>
                                        </a>
                                        <g class="typst-group" transform="matrix(1 0 0 1 4.1000000000000005 58)">
                                            <g>
                                                <path class="typst-shape" fill="#a23b72" fill-rule="nonzero" stroke="#000000" stroke-width="0.5" stroke-linecap="butt" stroke-linejoin="miter" stroke-miterlimit="4" d="M 0 0m 8.4 0 l 8.4 6 l -8.4 6 l -8.4 -6 Z "/>
                                            </g>
                                        </g>
                                        <a transform="matrix(1 0 0 1 4.1000000000000005 58)" href="bead://earth-col1-pos2-active1" xlink:href="bead://earth-col1-pos2-active1">
                                            <rect width="16.8" height="12" fill="transparent" stroke="none"/>
                                        </a>
                                        <g class="typst-group" transform="matrix(1 0 0 1 4.1000000000000005 70.5)">
                                            <g>
                                                <path class="typst-shape" fill="#a23b72" fill-rule="nonzero" stroke="#000000" stroke-width="0.5" stroke-linecap="butt" stroke-linejoin="miter" stroke-miterlimit="4" d="M 0 0m 8.4 0 l 8.4 6 l -8.4 6 l -8.4 -6 Z "/>
                                            </g>
                                        </g>
                                        <a transform="matrix(1 0 0 1 4.1000000000000005 70.5)" href="bead://earth-col1-pos3-active1" xlink:href="bead://earth-col1-pos3-active1">
                                            <rect width="16.8" height="12" fill="transparent" stroke="none"/>
                                        </a>
                                        <path class="typst-shape" fill="#eeeeee" fill-rule="nonzero" transform="matrix(1 0 0 1 36 10)" d="M 0 0v 80 h 3 v -80 Z "/>
                                        <g class="typst-group" transform="matrix(1 0 0 1 29.099999999999998 10)">
                                            <g>
                                                <path class="typst-shape" fill="#e6e6e6" fill-rule="nonzero" stroke="#000000" stroke-width="0.5" stroke-linecap="butt" stroke-linejoin="miter" stroke-miterlimit="4" d="M 0 0m 8.4 0 l 8.4 6 l -8.4 6 l -8.4 -6 Z "/>
                                            </g>
                                        </g>
                                        <a transform="matrix(1 0 0 1 29.099999999999998 10)" href="bead://heaven-col0-active0" xlink:href="bead://heaven-col0-active0">
                                            <rect width="16.8" height="12" fill="transparent" stroke="none"/>
                                        </a>
                                        <g class="typst-group" transform="matrix(1 0 0 1 29.099999999999998 33)">
                                            <g>
                                                <path class="typst-shape" fill="#2e86ab" fill-rule="nonzero" stroke="#000000" stroke-width="0.5" stroke-linecap="butt" stroke-linejoin="miter" stroke-miterlimit="4" d="M 0 0m 8.4 0 l 8.4 6 l -8.4 6 l -8.4 -6 Z "/>
                                            </g>
                                        </g>
                                        <a transform="matrix(1 0 0 1 29.099999999999998 33)" href="bead://earth-col0-pos0-active1" xlink:href="bead://earth-col0-pos0-active1">
                                            <rect width="16.8" height="12" fill="transparent" stroke="none"/>
                                        </a>
                                        <g class="typst-group" transform="matrix(1 0 0 1 29.099999999999998 45.5)">
                                            <g>
                                                <path class="typst-shape" fill="#2e86ab" fill-rule="nonzero" stroke="#000000" stroke-width="0.5" stroke-linecap="butt" stroke-linejoin="miter" stroke-miterlimit="4" d="M 0 0m 8.4 0 l 8.4 6 l -8.4 6 l -8.4 -6 Z "/>
                                            </g>
                                        </g>
                                        <a transform="matrix(1 0 0 1 29.099999999999998 45.5)" href="bead://earth-col0-pos1-active1" xlink:href="bead://earth-col0-pos1-active1">
                                            <rect width="16.8" height="12" fill="transparent" stroke="none"/>
                                        </a>
                                        <g class="typst-group" transform="matrix(1 0 0 1 29.099999999999998 65.5)">
                                            <g>
                                                <path class="typst-shape" fill="#e6e6e6" fill-rule="nonzero" stroke="#000000" stroke-width="0.5" stroke-linecap="butt" stroke-linejoin="miter" stroke-miterlimit="4" d="M 0 0m 8.4 0 l 8.4 6 l -8.4 6 l -8.4 -6 Z "/>
                                            </g>
                                        </g>
                                        <a transform="matrix(1 0 0 1 29.099999999999998 65.5)" href="bead://earth-col0-pos2-active0" xlink:href="bead://earth-col0-pos2-active0">
                                            <rect width="16.8" height="12" fill="transparent" stroke="none"/>
                                        </a>
                                        <g class="typst-group" transform="matrix(1 0 0 1 29.099999999999998 78)">
                                            <g>
                                                <path class="typst-shape" fill="#e6e6e6" fill-rule="nonzero" stroke="#000000" stroke-width="0.5" stroke-linecap="butt" stroke-linejoin="miter" stroke-miterlimit="4" d="M 0 0m 8.4 0 l 8.4 6 l -8.4 6 l -8.4 -6 Z "/>
                                            </g>
                                        </g>
                                        <a transform="matrix(1 0 0 1 29.099999999999998 78)" href="bead://earth-col0-pos3-active0" xlink:href="bead://earth-col0-pos3-active0">
                                            <rect width="16.8" height="12" fill="transparent" stroke="none"/>
                                        </a>
                                        <path class="typst-shape" fill="#000000" fill-rule="nonzero" transform="matrix(1 0 0 1 0 30)" d="M 0 0v 2 h 50 v -2 Z "/>
                                    </g>
                                </g>
                            </g>
                        </g>
                    </g>
                </g>
            </g>
        </g>
        <g class="typst-group">
            <g>
                <path class="typst-shape" fill="none" stroke="#000000" stroke-width="0" stroke-linecap="butt" stroke-linejoin="miter" stroke-miterlimit="4" transform="matrix(1 0 0 1 69 183)" d="M 0 0v 2 h 2 v -2 Z "/>
                <a transform="matrix(1 0 0 1 69 183)" href="crop-mark://top" xlink:href="crop-mark://top">
                    <rect width="2" height="2" fill="transparent" stroke="none"/>
                </a>
            </g>
        </g>
        <g class="typst-group">
            <g>
                <path class="typst-shape" fill="none" stroke="#000000" stroke-width="0" stroke-linecap="butt" stroke-linejoin="miter" stroke-miterlimit="4" transform="matrix(1 0 0 1 69 401)" d="M 0 0v 2 h 2 v -2 Z "/>
                <a transform="matrix(1 0 0 1 69 401)" href="crop-mark://bottom" xlink:href="crop-mark://bottom">
                    <rect width="2" height="2" fill="transparent" stroke="none"/>
                </a>
            </g>
        </g>
        <g class="typst-group">
            <g>
                <path class="typst-shape" fill="none" stroke="#000000" stroke-width="0" stroke-linecap="butt" stroke-linejoin="miter" stroke-miterlimit="4" transform="matrix(1 0 0 1 -10 292)" d="M 0 0v 2 h 2 v -2 Z "/>
                <a transform="matrix(1 0 0 1 -10 292)" href="crop-mark://left" xlink:href="crop-mark://left">
                    <rect width="2" height="2" fill="transparent" stroke="none"/>
                </a>
            </g>
        </g>
        <g class="typst-group">
            <g>
                <path class="typst-shape" fill="none" stroke="#000000" stroke-width="0" stroke-linecap="butt" stroke-linejoin="miter" stroke-miterlimit="4" transform="matrix(1 0 0 1 148 292)" d="M 0 0v 2 h 2 v -2 Z "/>
                <a transform="matrix(1 0 0 1 148 292)" href="crop-mark://right" xlink:href="crop-mark://right">
                    <rect width="2" height="2" fill="transparent" stroke="none"/>
                </a>
            </g>
        </g>
        <g class="typst-group">
            <g>
                <path class="typst-shape" fill="none" stroke="#000000" stroke-width="0" stroke-linecap="butt" stroke-linejoin="miter" stroke-miterlimit="4" transform="matrix(1 0 0 1 69 292)" d="M 0 0v 2 h 2 v -2 Z "/>
                <a transform="matrix(1 0 0 1 69 292)" href="crop-mark://center" xlink:href="crop-mark://center">
                    <rect width="2" height="2" fill="transparent" stroke="none"/>
                </a>
            </g>
        </g>
    </g>
</svg>

<svg class="typst-doc" viewBox="0 0 140 200" width="140pt" height="200pt" xmlns="http://www.w3.org/2000/svg" xmlns:xlink="http://www.w3.org/1999/xlink" xmlns:h5="http://www.w3.org/1999/xhtml">
    <path class="typst-shape" fill="#ffffff" fill-rule="nonzero" d="M 0 0 L 0 200 L 140 200 L 140 0 Z "/>
    <g>
        <g transform="translate(7 7)">
            <g class="typst-group">
                <g>
                    <g transform="translate(38 33)">
                        <g class="typst-group">
                            <g>
                                <g transform="translate(0 0)">
                                    <g class="typst-group">
                                        <g>
                                            <g transform="translate(0 0)">
                                                <g class="typst-group">
                                                    <g>
                                                        <g transform="translate(11 10)">
                                                            <path class="typst-shape" fill="#eeeeee" fill-rule="nonzero" d="M 0 0 L 0 72.5 L 3 72.5 L 3 0 Z "/>
                                                        </g>
                                                        <g transform="translate(4.1000000000000005 10)">
                                                            <g class="typst-group">
                                                                <g>
                                                                    <g transform="translate(0 0)">
                                                                        <path class="typst-shape" fill="#e6e6e6" fill-rule="nonzero" stroke="#000000" stroke-width="0.5" stroke-linecap="butt" stroke-linejoin="miter" stroke-miterlimit="4" d="M 8.4 0 L 16.8 6 L 8.4 12 L 0 6 Z "/>
                                                                    </g>
                                                                </g>
                                                            </g>
                                                        </g>
                                                        <g transform="translate(4.1000000000000005 33)">
                                                            <g class="typst-group">
                                                                <g>
                                                                    <g transform="translate(0 0)">
                                                                        <path class="typst-shape" fill="#a23b72" fill-rule="nonzero" stroke="#000000" stroke-width="0.5" stroke-linecap="butt" stroke-linejoin="miter" stroke-miterlimit="4" d="M 8.4 0 L 16.8 6 L 8.4 12 L 0 6 Z "/>
                                                                    </g>
                                                                </g>
                                                            </g>
                                                        </g>
                                                        <g transform="translate(4.1000000000000005 45.5)">
                                                            <g class="typst-group">
                                                                <g>
                                                                    <g transform="translate(0 0)">
                                                                        <path class="typst-shape" fill="#a23b72" fill-rule="nonzero" stroke="#000000" stroke-width="0.5" stroke-linecap="butt" stroke-linejoin="miter" stroke-miterlimit="4" d="M 8.4 0 L 16.8 6 L 8.4 12 L 0 6 Z "/>
                                                                    </g>
                                                                </g>
                                                            </g>
                                                        </g>
                                                        <g transform="translate(4.1000000000000005 58)">
                                                            <g class="typst-group">
                                                                <g>
                                                                    <g transform="translate(0 0)">
                                                                        <path class="typst-shape" fill="#a23b72" fill-rule="nonzero" stroke="#000000" stroke-width="0.5" stroke-linecap="butt" stroke-linejoin="miter" stroke-miterlimit="4" d="M 8.4 0 L 16.8 6 L 8.4 12 L 0 6 Z "/>
                                                                    </g>
                                                                </g>
                                                            </g>
                                                        </g>
                                                        <g transform="translate(4.1000000000000005 70.5)">
                                                            <g class="typst-group">
                                                                <g>
                                                                    <g transform="translate(0 0)">
                                                                        <path class="typst-shape" fill="#a23b72" fill-rule="nonzero" stroke="#000000" stroke-width="0.5" stroke-linecap="butt" stroke-linejoin="miter" stroke-miterlimit="4" d="M 8.4 0 L 16.8 6 L 8.4 12 L 0 6 Z "/>
                                                                    </g>
                                                                </g>
                                                            </g>
                                                        </g>
                                                        <g transform="translate(36 10)">
                                                            <path class="typst-shape" fill="#eeeeee" fill-rule="nonzero" d="M 0 0 L 0 80 L 3 80 L 3 0 Z "/>
                                                        </g>
                                                        <g transform="translate(29.099999999999998 10)">
                                                            <g class="typst-group">
                                                                <g>
                                                                    <g transform="translate(0 0)">
                                                                        <path class="typst-shape" fill="#e6e6e6" fill-rule="nonzero" stroke="#000000" stroke-width="0.5" stroke-linecap="butt" stroke-linejoin="miter" stroke-miterlimit="4" d="M 8.4 0 L 16.8 6 L 8.4 12 L 0 6 Z "/>
                                                                    </g>
                                                                </g>
                                                            </g>
                                                        </g>
                                                        <g transform="translate(29.099999999999998 33)">
                                                            <g class="typst-group">
                                                                <g>
                                                                    <g transform="translate(0 0)">
                                                                        <path class="typst-shape" fill="#2e86ab" fill-rule="nonzero" stroke="#000000" stroke-width="0.5" stroke-linecap="butt" stroke-linejoin="miter" stroke-miterlimit="4" d="M 8.4 0 L 16.8 6 L 8.4 12 L 0 6 Z "/>
                                                                    </g>
                                                                </g>
                                                            </g>
                                                        </g>
                                                        <g transform="translate(29.099999999999998 45.5)">
                                                            <g class="typst-group">
                                                                <g>
                                                                    <g transform="translate(0 0)">
                                                                        <path class="typst-shape" fill="#2e86ab" fill-rule="nonzero" stroke="#000000" stroke-width="0.5" stroke-linecap="butt" stroke-linejoin="miter" stroke-miterlimit="4" d="M 8.4 0 L 16.8 6 L 8.4 12 L 0 6 Z "/>
                                                                    </g>
                                                                </g>
                                                            </g>
                                                        </g>
                                                        <g transform="translate(29.099999999999998 65.5)">
                                                            <g class="typst-group">
                                                                <g>
                                                                    <g transform="translate(0 0)">
                                                                        <path class="typst-shape" fill="#e6e6e6" fill-rule="nonzero" stroke="#000000" stroke-width="0.5" stroke-linecap="butt" stroke-linejoin="miter" stroke-miterlimit="4" d="M 8.4 0 L 16.8 6 L 8.4 12 L 0 6 Z "/>
                                                                    </g>
                                                                </g>
                                                            </g>
                                                        </g>
                                                        <g transform="translate(29.099999999999998 78)">
                                                            <g class="typst-group">
                                                                <g>
                                                                    <g transform="translate(0 0)">
                                                                        <path class="typst-shape" fill="#e6e6e6" fill-rule="nonzero" stroke="#000000" stroke-width="0.5" stroke-linecap="butt" stroke-linejoin="miter" stroke-miterlimit="4" d="M 8.4 0 L 16.8 6 L 8.4 12 L 0 6 Z "/>
                                                                    </g>
                                                                </g>
                                                            </g>
                                                        </g>
                                                        <g transform="translate(0 30)">
                                                            <path class="typst-shape" fill="#000000" fill-rule="nonzero" d="M 0 0 L 0 2 L 50 2 L 50 0 Z "/>
                                                        </g>
                                                    </g>
                                                </g>
                                            </g>
                                        </g>
                                    </g>
                                </g>
                            </g>
                        </g>
                    </g>
                </g>
            </g>
        </g>
        <g transform="translate(69 183)">
            <path class="typst-shape" fill="none" stroke="#000000" stroke-width="0" stroke-linecap="butt" stroke-linejoin="miter" stroke-miterlimit="4" d="M 0 0 L 0 2 L 2 2 L 2 0 Z "/>
        </g>
        <g transform="translate(69 401)">
            <path class="typst-shape" fill="none" stroke="#000000" stroke-width="0" stroke-linecap="butt" stroke-linejoin="miter" stroke-miterlimit="4" d="M 0 0 L 0 2 L 2 2 L 2 0 Z "/>
        </g>
        <g transform="translate(-10 292)">
            <path class="typst-shape" fill="none" stroke="#000000" stroke-width="0" stroke-linecap="butt" stroke-linejoin="miter" stroke-miterlimit="4" d="M 0 0 L 0 2 L 2 2 L 2 0 Z "/>
        </g>
        <g transform="translate(148 292)">
            <path class="typst-shape" fill="none" stroke="#000000" stroke-width="0" stroke-linecap="butt" stroke-linejoin="miter" stroke-miterlimit="4" d="M 0 0 L 0 2 L 2 2 L 2 0 Z "/>
        </g>
        <g transform="translate(69 292)">
            <path class="typst-shape" fill="none" stroke="#000000" stroke-width="0" stroke-linecap="butt" stroke-linejoin="miter" stroke-miterlimit="4" d="M 0 0 L 0 2 L 2 2 L 2 0 Z "/>
        </g>
    </g>
</svg>
